X:7289
T:The Rocky Shore
R:waltz
C:Paul S. Cranford
D:The Lighthouse, Cranford Publications
B:The Lighthouse Collection, ISBN 0-9691181-5-5
N:Contacts ...
N:..... Cranford Publications <http://www.cranfordpub.com>
O:England
L:1/8
Q:196
M:3/4
K:G
GA|B3 B AG|D3 D DD|E2 G2 A2|B3 B GA|
B3 B AG|D3 A Bd|cB A2 G2|A3 A GA|
B3 B AG|D3 D DD|E2 G2 A2|B4Bd|
BA G2 B2|A3 G ED|E2 G2 A2|G3 G||
Bd|e2 ed ef|gB g2 gb|a3 g ab|g4 gf|
ef ed BA|BG E2 Bd|cG c2 B2|A3 A Bd|
e2 ed ef|gB g2 gb|a2 ag ab|g2 g2 gf|
ef ed BA|BG E2 GE|DE G2 A2|G4|]


